src/main/resources/icons/PlatformDebuggerImplIcons/icons/pinToTop/unpinnedItem.svg

<svg xmlns="http://www.w3.org/2000/svg" width="16" height="16" viewBox="0 0 16 16"><rect id="frame" width="16" height="16" fill="none"/><path fill="#9AA7B0" d="M11 10H5V4h6L8.75 7 11 10zm2-7H4v11h1v-3h8l-3-4 3-4z" fill-rule="evenodd"/></svg>

<svg xmlns="http://www.w3.org/2000/svg" width="16" height="16" viewBox="0 0 16 16">
  <g id="UnpinnedItem" fill="none" fill-rule="evenodd" stroke="none" stroke-width="1">
    <path id="Fill-2" fill="#9AA7B0" d="M11,10 L5,10 L5,4 L11,4 L8.75,7 L11,10 Z M13,3 L4,3 L4,14 L5,14 L5,11 L13,11 L10,7 L13,3 Z"/>
  </g>
</svg>
